X:1
T:O Salutaris Hostia
T:O Salutaris Hostia
T:Pierre de la Rue
C:Pierre de la Rue
%%score [ 1 2 3 4 ]
L:1/8
Q:1/4=90
M:2/2
K:F
V:1 treble nm="Soprano" snm="S."
V:2 treble nm="Alto" snm="A."
V:3 treble-8 nm="Tenor" snm="T."
V:4 bass nm="Bass" snm="B."
V:1
 A8 | A4 A4 | G4 A4 | G4 F4 | E4 z2 (A2 | A2) GF A3 B | !fermata!c8 | A8 | B8 | A8 | G8 | G8 | F8 | %13
w: O|sa- lu-|ta- ris|ho- sti-|a ho|_ _ _ sti _|a.|Quae|coe-|li|pan-|dis|o|
w: U-|ni tri-|no- que|Do- mi-|no, Do|_ _ _ mi _|no|sit|sem-|pi-|ter-|na|glo-|
 F6 ED | !fermata!E8 | A8 | A4 A4 | A8 | c6 BA | G2 A2 (B4 | B4) (A4 | A2) G2 G4 | A6 F2 | %23
w: sti _ _|um.|Bel-|la pre-|munt|ho _ _|_ _ sti|_ _||* li-|
w: ri _ _|a|qui|vi- tam|si-|ne _ _|_ _ ter|_ _||* mi-|
 !fermata!F8 | A8 | A8 | F4 D4 | B6 G2 | G4 c4 | c2 B2 A2 G2 | F4 (B4 | B2) A2 G2 F2 | E3 D E4 | %33
w: a,|da|ro|||bur, fer|_ _ _ _|au- xi|_ _ _ _|* * li-|
w: no|no-|bis|_ do|_ _|net in|_ _ _ _|* pa|_ _ _ _|* * tri-|
 !fermata!F8 :| F8 | !fermata!F8 |] %36
w: um.|A-|men|
w: a|A-|men|
V:2
 F8 | F4 F4 | E4 F4 | E4 D4 | C3 D E2 (F2 | F2) ED F4 | !fermata!E8 | F8 | F8 | F8 | D8 | E8 | D8 | %13
w: O|sa- lu-|ta- ris|ho- sti-|a _ _ ho|_ _ _ sti-|a.|Quae|coe-|li|pan-|dis|o-|
w: U-|ni tri-|no- que|Do- mi-|no _ _ Do|_ _ _ mi-|no|sit|sem-|pi-|ter-|na|glo-|
 D8 | !fermata!C8 | F8 | D4 (F4 | F2) ED C2 D2 | E8 | E4 (F4 | F4) F4 | D4 E4 | C6 D2 | %23
w: sti-|um.|Bel-|la pre|_ _ _ _ _||munt ho|_ sti|_ _|* li-|
w: ri-|a|qui|vi- tam|_ _ _ _ _||si- ne|_ ter|_ _|* mi-|
 !fermata!D8 | F8 | E8 | D4 (F4 | F2) ED F2 G2 | E8 | F6 E2 | D2 C2 B,2 C2 | D8 | (C8 | %33
w: a,|da|ro-|bur fer|_ _ _ _ _|au-|xi _|_ _ _ _|li|um|
w: no|no-|bis|do- net|_ _ _ _ _|in|pa _|_ _ _ _|tri|a|
 !fermata!C8) :| C8 | !fermata!C8 |] %36
w: _|A-|men|
w: _|A-|men|
V:3
 (c8 | c8) | c4 c4 | c4 A4 | c8 | d8 | !fermata!c8 | c8 | d8 | c8 | B8 | c8 | A8 | B8 | %14
w: O|_|sa- lu-|ta- ris|ho-|sti-|a.|Quae|coe-|li|pan-|dis|o-|sti-|
w: U|_|ni tri-|no- que|Do-|mi-|no|sit|sem-|pi-|ter-|na|glo-|ri-|
 !fermata!G8 | z8 | A8 | A6 GF | G8 | c4 (d4 | d4) c4 | B8 | (A8 | !fermata!A8) | A8 | c4 c4 | d8 | %27
w: um.||Bel-|la _ _|pre|munt ho|_ sti-|li-|a|_|da|_ ro|bur|
w: a||qui|vi _ _|tam|si- ne|_ ter-|mi-|no|_|no|_ bis|do|
 d8 | z2 c4 B2 | A2 G2 F4 | f6 e2 | d2 c2 B2 A2 | G3 F G4 | !fermata!F8 :| F8 | !fermata!F8 |] %36
w: _|fer _|_ _ au-|xi _|_ _ _ _|* * li-|um.|A-|men|
w: _|net _|_ _ in|pa _|_ _ _ _|* * tri-|a|A-|men|
V:4
 F,8 | F,4 F,4 | C,4 F,4 | C,4 D,4 | A,8 | D,8 | !fermata!A,8 | F,8 | B,8 | F,8 | G,8 | C,8 | D,8 | %13
w: O|sa- lu-|ta- ris|ho _|_|sti-|a.|Quae|coe-|li|pan-|dis|o-|
w: U-|ni tri-|no- que|Do _|_|mi-|no|sit|sem-|pi-|ter-|na|glo-|
 B,,8 | !fermata!C,8 | D,8 | D,4 D,4 | F,6 E,D, | C,8 | C,4 (B,,4 | B,,4) F,4 | G,4 E,4 | %22
w: sti-|um.|Bel-|la pre-|munt _ _|_|ho- sti|_ _||
w: ri-|a|qui|vi- tam|si _ _|_|ne ter|_ _||
 F,3 G, A,4 | !fermata!D,8 | (D,8 | A,8) | D,6 B,,2 | B,,4 B,,4 | C,8 | z4 (F,4 | %30
w: * * li-|a,|da|_||ro- bur|fer|au|
w: * * mi-|no|no|_||bis do-|net|in|
 F,2) E,2 D,2 C,2 | B,,8 | C,8 | !fermata!F,8 :| F,8 | !fermata!F,8 |] %36
w: _ _ _ _|xi|li|um.|A-|men|
w: _ _ _ _|pa-|tri-|a|A-|men|

